X:420
T:Banish Misfortune
R:jig
D:Tommy Keane & Jacqueline McCarthy: The Wind among the Reeds
D:Chieftains Live.
Z:First bar also played |^fed cAG|
Z:id:hn-jig-3
M:6/8
K:Dmix
|fed cAG|Add cAG|F2D DED|F2F GFG|
A2A cAG|AGA cde|fed cAG|Ad^c d2e:|
|:f2d d^cd|f2g agf|e2c cBc|e2f gfe|
f2g agf|e2f gfe|fed cAG|Ad^c d2e:|
|:f2g e2f|d2e c2d|A2A GAG|F2F FED|
c2c cAG|AGA cde|fed cAG|Ad^c d2e:|
